apps/scalable/nomacs.svg

<svg xmlns="http://www.w3.org/2000/svg" style="isolation:isolate" width="256" height="256" viewBox="0 0 256 256">
 <defs>
  <filter id="5ojSTnXdvnBjXxCFuFiTPuUm5bP5L1ie" width="400%" height="400%" x="-200%" y="-200%" color-interpolation-filters="sRGB" filterUnits="objectBoundingBox">
   <feGaussianBlur xmlns="http://www.w3.org/2000/svg" in="SourceGraphic" stdDeviation="4.294"/>
   <feOffset xmlns="http://www.w3.org/2000/svg" dx="0" dy="4" result="pf_100_offsetBlur"/>
   <feFlood xmlns="http://www.w3.org/2000/svg" flood-opacity=".4"/>
   <feComposite xmlns="http://www.w3.org/2000/svg" in2="pf_100_offsetBlur" operator="in" result="pf_100_dropShadow"/>
   <feBlend xmlns="http://www.w3.org/2000/svg" in="SourceGraphic" in2="pf_100_dropShadow" mode="normal"/>
  </filter>
 </defs>
 <g filter="url(#5ojSTnXdvnBjXxCFuFiTPuUm5bP5L1ie)">
  <path fill="#E6E6E6" d="M 165.688919 11.95 C 239.744626 11.95 250.328309 22.507198 250.328309 96.493859 L 250.328309 155.744653 C 250.328309 229.73091 239.744626 240.288396 165.688919 240.288396 L 90.319393 240.288396 C 16.26369 240.288396 5.68 229.73091 5.68 155.744653 L 5.68 96.493859 C 5.68 22.507198 16.26369 11.95 90.319393 11.95 L 165.688919 11.95 Z"/>
 </g>
 <g opacity=".1">
  <path fill="#FFFFFF" d="M 6.357415 83.579714 L 211.766022 236.610322 C 200.204289 238.92143 185.339539 239.628592 166.242886 239.628592 L 90.873361 239.628592 C 16.817653 239.628592 6.23397 229.071106 6.23397 155.084848 L 6.23397 95.834054 C 6.23397 91.531105 6.275464 87.463972 6.357415 83.579714 L 6.357415 83.579714 Z"/>
 </g>
 <g opacity=".4">
  <linearGradient id="_lgradient_11" x1=".517" x2=".517" y1="0" y2="1">
   <stop offset="0%" style="stop-color:rgb(255,255,255)"/>
   <stop offset="12.5%" stop-opacity=".098" style="stop-color:rgb(255,255,255)"/>
   <stop offset="92.5%" stop-opacity=".098" style="stop-color:rgb(0,0,0)"/>
   <stop offset="100%" stop-opacity=".498" style="stop-color:rgb(0,0,0)"/>
  </linearGradient>
  <path fill="none" stroke="url(#_lgradient_11)" stroke-linecap="round" stroke-linejoin="round" stroke-width="4.077" d="M 165.68477 11.946993 C 239.740477 11.946993 250.324166 22.504193 250.324166 96.490823 L 250.324166 155.741586 C 250.324166 229.727914 239.740477 240.285417 165.68477 240.285417 L 90.315251 240.285417 C 16.259544 240.285417 5.675855 229.727914 5.675855 155.741586 L 5.675855 96.490823 C 5.675855 22.504193 16.259544 11.946993 90.315251 11.946993 L 165.68477 11.946993 Z" vector-effect="non-scaling-stroke"/>
 </g>
 <defs>
  <linearGradient id="_lgradient_12" x1=".533" x2=".533" y1="-.071" y2="1.137">
   <stop offset="0%" style="stop-color:#2B898F"/>
   <stop offset="100%" style="stop-color:#5BDBC1"/>
  </linearGradient>
 </defs>
 <path d="M 45.61 54 L 212.89 54 C 215.710286 54 218 56.289714 218 59.11 L 218 194.89 C 218 197.710286 215.710286 200 212.89 200 L 45.61 200 C 42.789714 200 40.5 197.710286 40.5 194.89 L 40.5 59.11 C 40.5 56.289714 42.789714 54 45.61 54 Z" style="fill:url(#_lgradient_12)"/>
 <linearGradient id="_lgradient_13" x1=".25" x2=".75" y1=".036" y2=".902" gradientTransform="matrix(177.5,0,0,39.666667,40.5,160.333333)" gradientUnits="userSpaceOnUse">
  <stop offset="2.174%" style="stop-color:rgb(149,117,82)"/>
  <stop offset="100%" style="stop-color:rgb(178,147,115)"/>
 </linearGradient>
 <path fill="url(#_lgradient_13)" d="M 40.5 160.666667 L 218 160.333333 L 218 194.89 C 218 197.710286 215.710286 200 212.89 200 L 45.61 200 C 42.789714 200 40.5 197.710286 40.5 194.89 L 40.5 160.666667 Z"/>
 <g>
  <g opacity=".7">
   <path fill="#3B3B3B" d="M 146.631374 183.742253 C 137.001191 183.977637 130.185105 185.66379 134.759085 186.857429 C 139.685896 188.143143 149.882251 190 149.882251 190 L 149.882251 190 L 196.101306 190 C 196.101306 190 193.161693 188.428857 187.140036 186.857429 C 181.549697 185.398558 162.68032 183.939687 151.377671 183.738181 L 134.864504 179.428858 L 130.102602 179.428858 L 146.631374 183.742253 Z"/>
  </g>
  <g opacity=".7">
   <path fill="#3B3B3B" d="M 146.055844 178 L 107.960599 178 L 109.055445 178.285714 C 109.055445 178.285714 127.911808 178.857142 130.1015 179.428571 C 131.413454 179.426875 132.241579 179.426875 134.863402 179.428571 C 134.863402 179.428571 147.15069 178.285714 147.15069 178.285714 L 146.055844 178 L 146.055844 178 Z"/>
  </g>
 </g>
 <g>
  <g opacity=".5">
   <path fill="#FFFFFF" d="M 125.619049 130.147888 C 115.086884 128.186356 101.809525 114.135086 101.809525 104.188095 C 101.809525 93.473808 104.890472 78 104.890472 78 L 104.890472 78 L 151.109528 78 C 151.109528 78 154.190475 91.092857 154.190475 104.188095 C 154.190475 116.345352 140.911438 128.502609 130.380951 130.181824 L 130.380951 166.09285 L 125.619049 166.09285 L 125.619049 130.147888 Z"/>
  </g>
  <g opacity=".5">
   <path fill="#FFFFFF" d="M 147.047623 178 L 108.952377 178 L 108.952377 175.619049 C 108.952377 175.619049 125.619049 170.857147 125.619049 166.095245 C 126.9375 166.109375 127.765625 166.109375 130.380951 166.095245 C 130.380951 166.095245 147.047623 175.619049 147.047623 175.619049 L 147.047623 178 L 147.047623 178 Z"/>
  </g>
  <path fill="#257479" d="M 102.166667 97.047619 C 101.94768 99.421726 101.828528 101.803985 101.809524 104.188095 C 101.809524 114.902381 111.333333 130.37619 128 130.378571 C 144.666667 130.380952 154.190476 117.283333 154.190476 104.188095 C 154.190476 101.77619 154.078571 99.37619 153.907143 97.047619 L 102.166667 97.047619 Z"/>
  <g opacity=".7">
   <path fill="#FFFFFF" d="M 113.819048 97.047619 C 114.290476 91.740476 115.121429 86.309524 115.728571 82.761905 L 109.909524 82.761905 C 109.304762 86.309524 108.471429 91.740476 108 97.047619 L 113.819048 97.047619 Z"/>
  </g>
  <g opacity=".7">
   <path fill="#FFFFFF" d="M 113.819048 97.047619 L 108 97.047619 C 107.772423 99.421245 107.648496 101.803668 107.628571 104.188095 C 107.628571 110.045238 112.321429 118.845238 118.47619 123.238095 C 114.742857 118.030952 113.45 109.404762 113.45 104.188095 C 113.45 101.971429 113.6 99.521429 113.819048 97.047619 Z"/>
  </g>
 </g>
</svg>

<svg xmlns="http://www.w3.org/2000/svg" style="isolation:isolate" width="256" height="256"><defs><filter id="a" width="400%" height="400%" x="-200%" y="-200%" color-interpolation-filters="sRGB" filterUnits="objectBoundingBox"><feGaussianBlur xmlns="http://www.w3.org/2000/svg" in="SourceGraphic" stdDeviation="4.294"/><feOffset xmlns="http://www.w3.org/2000/svg" dy="4" result="pf_100_offsetBlur"/><feFlood xmlns="http://www.w3.org/2000/svg" flood-opacity=".4"/><feComposite xmlns="http://www.w3.org/2000/svg" in2="pf_100_offsetBlur" operator="in" result="pf_100_dropShadow"/><feBlend xmlns="http://www.w3.org/2000/svg" in="SourceGraphic" in2="pf_100_dropShadow"/></filter></defs><path fill="#E6E6E6" d="M165.689 11.95c74.056 0 84.64 10.557 84.64 84.544v59.25c0 73.987-10.584 84.544-84.64 84.544h-75.37c-74.055 0-84.639-10.557-84.639-84.543V96.494c0-73.987 10.584-84.544 84.64-84.544h75.369z" filter="url(#a)"/><path fill="#FFF" d="M6.357 83.58l205.409 153.03c-11.562 2.311-26.426 3.019-45.523 3.019h-75.37c-74.055 0-84.639-10.558-84.639-84.544v-59.25c0-4.304.041-8.371.123-12.255z" opacity=".1"/><g opacity=".4"><linearGradient id="b" x1=".517" x2=".517" y2="1"><stop offset="0%" stop-color="#fff"/><stop offset="12.5%" stop-opacity=".098" stop-color="#fff"/><stop offset="92.5%" stop-opacity=".098"/><stop offset="100%" stop-opacity=".498"/></linearGradient><path fill="none" stroke="url(#b)" stroke-linecap="round" stroke-linejoin="round" stroke-width="4.077" d="M165.685 11.947c74.055 0 84.64 10.557 84.64 84.544v59.25c0 73.987-10.585 84.544-84.64 84.544h-75.37c-74.055 0-84.64-10.557-84.64-84.543V96.49c0-73.987 10.585-84.544 84.64-84.544h75.37z" vector-effect="non-scaling-stroke"/></g><defs><linearGradient id="c" x1=".533" x2=".533" y1="-.071" y2="1.137"><stop offset="0%" stop-color="#2b898f"/><stop offset="100%" stop-color="#5bdbc1"/></linearGradient></defs><path d="M45.61 54h167.28c2.82 0 5.11 2.29 5.11 5.11v135.78c0 2.82-2.29 5.11-5.11 5.11H45.61c-2.82 0-5.11-2.29-5.11-5.11V59.11c0-2.82 2.29-5.11 5.11-5.11z" fill="url(#c)"/><linearGradient id="d" x1=".25" x2=".75" y1=".036" y2=".902" gradientTransform="matrix(177.5 0 0 39.66667 40.5 160.333)" gradientUnits="userSpaceOnUse"><stop offset="2.174%" stop-color="#957552"/><stop offset="100%" stop-color="#b29373"/></linearGradient><path fill="url(#d)" d="M40.5 160.667l177.5-.334v34.557c0 2.82-2.29 5.11-5.11 5.11H45.61c-2.82 0-5.11-2.29-5.11-5.11v-34.223z"/><path fill="#3B3B3B" d="M146.631 183.742c-9.63.236-16.446 1.922-11.872 3.115 4.927 1.286 15.123 3.143 15.123 3.143h46.22s-2.94-1.571-8.962-3.143c-5.59-1.458-24.46-2.917-35.762-3.119l-16.513-4.31h-4.762l16.528 4.314z" opacity=".7"/><path fill="#3B3B3B" d="M146.056 178H107.96l1.094.286s18.857.571 21.046 1.143c1.312-.002 2.14-.002 4.762 0l12.288-1.143-1.095-.286z" opacity=".7"/><g><path fill="#FFF" d="M125.619 130.148c-10.532-1.962-23.81-16.013-23.81-25.96C101.81 93.474 104.89 78 104.89 78h46.22s3.08 13.093 3.08 26.188c0 12.157-13.279 24.315-23.809 25.994v35.91h-4.762v-35.944zM147.048 178h-38.096v-2.381s16.667-4.762 16.667-9.524c1.319.014 2.147.014 4.762 0l16.667 9.524V178z" opacity=".5"/><path fill="#257479" d="M102.167 97.048a85.128 85.128 0 0 0-.357 7.14c0 10.714 9.523 26.188 26.19 26.19 16.667.003 26.19-13.095 26.19-26.19a97.52 97.52 0 0 0-.283-7.14h-51.74z"/><path fill="#FFF" d="M113.819 97.048c.471-5.308 1.302-10.738 1.91-14.286h-5.82c-.604 3.548-1.438 8.978-1.909 14.286h5.819zM113.819 97.048H108a81.996 81.996 0 0 0-.371 7.14c0 5.857 4.692 14.657 10.847 19.05-3.733-5.207-5.026-13.833-5.026-19.05 0-2.217.15-4.667.369-7.14z" opacity=".7"/></g></svg>
